earbuds.svg

<svg fill="currentColor" viewBox="0 0 24 24"><path d="M10 8v12c0 .55-.45 1-1 1H8c-.55 0-1-.45-1-1v-6.73c-.68.45-1.39.73-2 .73-2 0-3-2-3-3V6c0-1 1-3 3-3s5 3 5 5m6.5-5C13.46 3 11 5.46 11 8.5s2.46 5.5 5.5 5.5S22 11.54 22 8.5 19.54 3 16.5 3m-2 11.68V20c0 .55.45 1 1 1h2c.55 0 1-.45 1-1v-5.32c-.63.21-1.3.32-2 .32s-1.37-.11-2-.32"/></svg>

<svg  viewBox="0 0 24 24" fill="currentColor"><path  d="M10 8V20C10 20.55 9.55 21 9 21H8C7.45 21 7 20.55 7 20V13.27C6.32 13.72 5.61 14 5 14C3 14 2 12 2 11V6C2 5 3 3 5 3S10 6 10 8M16.5 3C13.46 3 11 5.46 11 8.5S13.46 14 16.5 14 22 11.54 22 8.5 19.54 3 16.5 3M14.5 14.68V20C14.5 20.55 14.95 21 15.5 21H17.5C18.05 21 18.5 20.55 18.5 20V14.68C17.87 14.89 17.2 15 16.5 15S15.13 14.89 14.5 14.68Z"/></svg>
